src/images/svg/LogoIcon.svg

<svg width="40" height="35" viewBox="0 0 40 35" fill="none" xmlns="http://www.w3.org/2000/svg">
<g clip-path="url(#clip0_37_29)">
<path d="M37.0025 2.19091C33.2628 2.40351 25.8298 3.17734 21.2412 5.99101C20.9245 6.18515 20.745 6.53037 20.745 6.89131V31.7652C20.745 32.5548 21.6069 33.0538 22.3337 32.6874C27.0547 30.3071 33.8824 29.6577 37.2584 29.48C38.411 29.4191 39.307 28.4936 39.307 27.3841V4.28955C39.3077 3.0789 38.2595 2.11982 37.0025 2.19091ZM18.0658 5.99101C13.4779 3.17734 6.04492 2.4042 2.30523 2.19091C1.04821 2.11982 0 3.0789 0 4.28955V27.3848C0 28.4949 0.896024 29.4205 2.04864 29.4807C5.42596 29.6584 12.257 30.3085 16.9781 32.6901C17.7028 33.0559 18.562 32.5575 18.562 31.77V6.879C18.562 6.51738 18.3832 6.18584 18.0658 5.99101Z" fill="#28A745"/>
</g>
<defs>
<clipPath id="clip0_37_29">
<rect width="39.3077" height="35" fill="white"/>
</clipPath>
</defs>
</svg>

<svg width="40" height="35" xmlns="http://www.w3.org/2000/svg"><path d="M37.002 2.19c-3.74.214-11.172.987-15.76 3.801-.318.194-.497.54-.497.9v24.874c0 .79.862 1.289 1.589.922 4.72-2.38 11.548-3.03 14.924-3.207 1.153-.06 2.049-.986 2.049-2.096V4.29c0-1.211-1.047-2.17-2.305-2.1ZM18.066 5.992c-4.588-2.814-12.021-3.587-15.76-3.8C1.047 2.12 0 3.079 0 4.29v23.095c0 1.11.896 2.035 2.049 2.096 3.377.177 10.208.827 14.93 3.21.724.365 1.583-.134 1.583-.921V6.879a1.03 1.03 0 0 0-.496-.888Z" /></svg>
